!!!OTL: 96. Freylekhs
!!!Genre:	Freylekhs
!!!Mode:	Freygish
!!!Listening/dance:	dance
!!!One_Mode:	yes
**kern
*part1
*staff1
*clefG2
*k[b-e-a-]
*G:frey
*M2/4
*>A
=1-
8g
4bn
8b
=2
8bnL
(>8qdd/
8ccJ)
4cc
=3
8bnL
8f
8g
8a-J
=4
16bnLL
16cc
16dd
16ccJJ
16bLL
16a-
16g
16fJJ
=5
8g
4bn
8b
=6
8bnL
(>8qdd/
8ccJ)
4cc
=7
8bnL
8f
8g
8a-J
*>A1
=8
4g
4gg
*>A2
=9:|!
2g
=10!|:
*>B
16ccLL
16ddJJ
4ee-
8ee-
=11
(>16ee-LL
16ffJ
8ee-J)
8.ddL
16ccJk
=12
(>16bnLL
16ccJJ)
4dd
8dd
=13
8ddL
(>8qee-/
8ddJ)
4cc
=14
8bn
(8qdd/
4cc)
8b
=15
8.ccL
16bnJk
(>16ccLL
16bJ
8a-J)
*>B1
=16
4g
4bn
=17
4dd
4gg
*>B2
=18:|!
2g
=19
4gg
4r
==
*-
